!!!OTL: 今のキミを忘れない
**kern	**kern	**text	**kern	**text	**kern	**text	**kern	**text	**text
*part5	*part4	*part4	*part3	*part3	*part2	*part2	*part1	*part1	*part1
*staff5	*staff4	*staff4	*staff3	*staff3	*staff2	*staff2	*staff1	*staff1	*staff1
*I"ベース	*I"ボーカル	*	*I"ボーカル	*	*I"ボーカル	*	*I"ボーカル	*	*
*I'B. Guit.	*I'Vo.	*	*I'Vo.	*	*I'Vo.	*	*I'Vo.	*	*
*clefGv2	*clefGv2	*	*clefG2	*	*clefG2	*	*clefG2	*	*
*Trd0c0	*	*	*	*	*	*	*	*	*
*k[f#c#g#]	*k[f#c#g#]	*	*k[f#c#g#]	*	*k[f#c#g#]	*	*k[f#c#g#]	*	*
*M4/4	*M4/4	*	*M4/4	*	*M4/4	*	*M4/4	*	*
*MM110	*MM110	*	*MM110	*	*MM110	*	*MM110	*	*
=1	=1	=1	=1	=1	=1	=1	=1	=1	=1
1r	1r	.	1r	.	1r	.	8r	.	.
.	.	.	.	.	.	.	8r	.	.
.	.	.	.	.	.	.	4r	.	.
.	.	.	.	.	.	.	8r	.	.
.	.	.	.	.	.	.	8r	.	.
.	.	.	.	.	.	.	8r	.	.
.	.	.	.	.	.	.	16F#LL	あ	.
.	.	.	.	.	.	.	16G#JJ	た	.
=2	=2	=2	=2	=2	=2	=2	=2	=2	=2
4D	2A	.	2c#	.	2f#	woo	8AL	ら　	.
.	.	.	.	.	.	.	8F#	し	.
4D	.	.	.	.	.	.	8A	い	.
.	.	.	.	.	.	.	8f#J	ひ	.
4E	2B	.	2e	.	2g#	.	8eL	び	.
.	.	.	.	.	.	.	8dJ	の	.
4E	.	.	.	.	.	.	8c#L	な	.
.	.	.	.	.	.	.	16BL	か	.
.	.	.	.	.	.	.	16c#JJ	で	.
=3	=3	=3	=3	=3	=3	=3	=3	=3	=3
4A	4c#	.	4e	.	4a	.	2c#	ー	.
4A	8r	.	8r	.	8r	.	.	.	.
.	8c#	.	8e	.	8a	tu	.	.	.
4A	8r	.	8r	.	8r	.	8r	.	.
.	8c#	.	8e	.	8a	.	8r	.	.
4A	8r	.	8r	.	8r	.	8r	.	.
.	8c#	.	8e	.	8a	.	16F#LL	.	き
.	.	.	.	.	.	.	16G#JJ	.	み
=4	=4	=4	=4	=4	=4	=4	=4	=4	=4
4D	2A	.	2c#	.	2f#	woo	8AL	.	は
.	.	.	.	.	.	.	8F#	.	わ
4D	.	.	.	.	.	.	8A	.	す
.	.	.	.	.	.	.	8dJ	.	れ
4E	2B	.	2e	.	2g#	.	8c#L	.	て
.	.	.	.	.	.	.	8B	い	.
4E	.	.	.	.	.	.	8A	く	.
.	.	.	.	.	.	.	8c#J	か	.
=5	=5	=5	=5	=5	=5	=5	=5	=5	=5
4F#	8r	.	4r	.	4.r	.	2c#	な	.
.	[4.A	fon	.	.	.	.	.	.	.
4F#	.	.	[4c#	fon	.	.	.	.	.
.	.	.	.	.	[8e	fon	.	.	.
4F#	2A]	.	2c#]	.	2e]	.	4r	.	.
8F#L	.	.	.	.	.	.	8r	.	.
8EJ	.	.	.	.	.	.	16G#LL	で	.
.	.	.	.	.	.	.	16G#JJ	も	.
=6	=6	=6	=6	=6	=6	=6	=6	=6	=6
4D	2A	.	2c#	.	2f#	woo	8AL	す	.
.	.	.	.	.	.	.	8F#	こ	.
4D	.	.	.	.	.	.	8A	し	.
.	.	.	.	.	.	.	8f#J	く	.
4E	2B	.	2e	.	2g#	.	4e	らい	.
4E	.	.	.	.	.	.	8BL	お	.
.	.	.	.	.	.	.	[8BJ	ぼ	.
=7	=7	=7	=7	=7	=7	=7	=7	=7	=7
4C#	2B	.	2d	.	2f#	.	8BL]	え	.
.	.	.	.	.	.	.	8c#	て	.
4C#	.	.	.	.	.	.	8A	て	.
.	.	.	.	.	.	.	8AJ	ほ	.
4F#	4A	.	4c#	.	4e	.	4A	しい	.
4E	4r	.	4r	.	4r	.	8r	.	.
.	.	.	.	.	.	.	16F#LL	いっ	.
.	.	.	.	.	.	.	16G#JJ	.	.
=8	=8	=8	=8	=8	=8	=8	=8	=8	=8
4BB	1d	.	1f#	.	1a	.	8AL	しょ	.
.	.	.	.	.	.	.	8F#	に	.
4BB	.	.	.	.	.	.	8A	す	.
.	.	.	.	.	.	.	8F#J	ご	.
4BB	.	.	.	.	.	.	8AL	し	.
.	.	.	.	.	.	.	8F#	た	.
4BB	.	.	.	.	.	.	8A	と	.
.	.	.	.	.	.	.	8f#J	き	.
=9	=9	=9	=9	=9	=9	=9	=9	=9	=9
2B	4.r	.	8.r	.	1a	.	2e	を	.
.	.	.	[16f#	.	.	.	.	.	.
.	.	.	4f#_	.	.	.	.	.	.
.	8d	.	.	.	.	.	.	.	.
2E	2B	.	2f#]	.	.	.	8c#L	な	.
.	.	.	.	.	.	.	8d	ん	.
.	.	.	.	.	.	.	8e	ね	.
.	.	.	.	.	.	.	[8f#J	ん	.
=10	=10	=10	=10	=10	=10	=10	=10	=10	=10
4.D	2A	.	2d	.	2f#	woo	4.f#]	.	.
8D	.	.	.	.	.	.	8r	.	.
2E	2G#	.	2B	.	2e	.	8BL	たっ	.
.	.	.	.	.	.	.	8c#	.	.
.	.	.	.	.	.	.	8d	て	.
.	.	.	.	.	.	.	[8eJ	も	.
=11	=11	=11	=11	=11	=11	=11	=11	=11	=11
4.C#	2B	.	2e	.	2g#	.	4.e]	ー	.
8C#	.	.	.	.	.	.	8r	.	.
4F#	2A	.	2c#	.	2e	.	8AL	い	.
.	.	.	.	.	.	.	8B	ろ	.
4F#	.	.	.	.	.	.	8c#	あ	.
.	.	.	.	.	.	.	[8dJ	せ	.
=12	=12	=12	=12	=12	=12	=12	=12	=12	=12
4B	2d	.	2f#	.	2a	.	8dL]	ー	.
.	.	.	.	.	.	.	8d	な	.
4B	.	.	.	.	.	.	8d	い	.
.	.	.	.	.	.	.	8dJ	お	.
4C#	2G#	.	2c#	.	2e	.	8c#L	も	.
.	.	.	.	.	.	.	8B	い	.
4C#	.	.	.	.	.	.	8A	で	.
.	.	.	.	.	.	.	[8c#J	を	.
=13	=13	=13	=13	=13	=13	=13	=13	=13	=13
4.F#	2A	.	2c#	.	2e	.	2c#]	.	.
8F#	.	.	.	.	.	.	.	.	.
8EL	8G#L	.	8BL	.	8eL	.	8c#L	あ	.
8E	8G#	.	8B	.	8e	.	8d	り	.
8A	8A	.	8c#	.	8g#	.	8e	が	.
8AJ	[8c#J	.	[8f#J	.	[8aJ	.	[8f#J	と	.
=14	=14	=14	=14	=14	=14	=14	=14	=14	=14
4D	2c#]	.	2f#]	.	2a]	.	2f#]	ー	.
4D	.	.	.	.	.	.	.	.	.
4E	2B	.	2e	.	2g#	woo	8BL	あ	.
.	.	.	.	.	.	.	8c#	り	.
4E	.	.	.	.	.	.	8d	が	.
.	.	.	.	.	.	.	8f#J	と	.
=15	=15	=15	=15	=15	=15	=15	=15	=15	=15
4.C#	2G#	.	2B	.	2e	.	2e	う	.
8C#	.	.	.	.	.	.	.	.	.
2F#	2r	.	2r	.	2r	.	8AL	い	.
.	.	.	.	.	.	.	8B	ま	.
.	.	.	.	.	.	.	8c#	な	.
.	.	.	.	.	.	.	8dJ	ら	.
=16	=16	=16	=16	=16	=16	=16	=16	=16	=16
4BB	8r	.	8r	.	8r	.	8r	.	.
.	8AL	.	8dL	.	8f#L	.	8dL	す	.
4BB	8AJ	.	8dJ	.	8f#J	.	8dJ	な	.
.	4A	.	4d	.	4f#	.	4d	おに	.
4BB	.	.	.	.	.	.	.	.	.
.	8AL	.	8dL	.	8f#L	.	8dL	い	.
4BB	8A	.	8d	.	8g#	.	8e	え	.
.	8AJ	.	8dJ	.	8aJ	.	8f#J	る	.
=17	=17	=17	=17	=17	=17	=17	=17	=17	=17
2E	4.A	.	4.B	.	4.a	.	4.e	よ	.
.	8E	.	8c#	.	8g#	.	8c#	い	.
2E	8EL	.	8c#L	.	8g#L	.	8c#L	ま	.
.	8E	.	8c#	.	8g#	.	8d	き	.
.	8E	.	8c#	.	8g#	.	8e	み	.
.	[8DJ	.	[8c#J	.	[8aJ	.	[8f#J	を	.
=18	=18	=18	=18	=18	=18	=18	=18	=18	=18
4.D	4.D]	.	4.c#]	.	4.a]	.	8f#]	.	.
.	.	.	.	.	.	.	4r	.	.
8D	16G#LL	.	16BLL	.	16eLL	.	16BLL	い	.
.	16G#JJ	.	16BJJ	.	16eJJ	.	16BJJ	ま	.
2E	8G#L	.	8BL	.	8eL	.	8BL	の	.
.	8G#	.	8B	.	8e	.	8c#	き	.
.	8G#	.	8B	.	8e	.	8d	み	.
.	8AJ	.	8c#J	.	8f#J	.	8f#J	を	.
=19	=19	=19	=19	=19	=19	=19	=19	=19	=19
4.C#	2G#	.	2B	.	2e	.	4e	ー	.
.	.	.	.	.	.	.	8r	.	.
8C#	.	.	.	.	.	.	8A	い	.
4F#	2r	.	2r	.	2r	.	8AL	つ	.
.	.	.	.	.	.	.	8B	ま	.
4F#	.	.	.	.	.	.	8c#	で	.
.	.	.	.	.	.	.	8dJ	も	.
=20	=20	=20	=20	=20	=20	=20	=20	=20	=20
4BB	8r	.	2d	.	2a	woo	8r	.	.
.	8BL	.	.	.	.	.	8dL	わ	.
4BB	8B	.	.	.	.	.	8d	す	.
.	8BJ	.	.	.	.	.	8dJ	れ	.
4C#	8c#L	.	2c#	.	2g#	.	8eL	な	.
.	8f#	.	.	.	.	.	8a	い	.
4C#	8e	.	.	.	.	.	8g#	か	.
.	[8f#J	.	.	.	.	.	[8aJ	ら	.
=21	=21	=21	=21	=21	=21	=21	=21	=21	=21
4.F#	4.f#]	.	2e	.	2a	.	4.a]	ー	.
8F#	8f#	.	.	.	.	.	8a	な	.
4E	8eL	.	8BL	.	8g#L	か	8g#L	か	.
.	8c#	.	8B	.	8g#	な	8e	な	.
4A	8A	.	8A	.	8g#	い	8c#	い	.
.	[8dJ	.	[8AJ	.	[8f#J	で	[8f#J	で	.
=22	=22	=22	=22	=22	=22	=22	=22	=22	=22
4.D	4.d]	.	2A]	.	2f#]	.	4.f#]	ー	.
8D	8G#	.	.	.	.	.	8B	わ	.
4.C#	8G#L	.	2B	.	2g#	えー-	8BL	ら	.
.	8A	.	.	.	.	.	8c#	っ	.
.	8B	.	.	.	.	.	8d	て	.
8C#	8dJ	.	.	.	.	.	8f#J	よ	.
=23	=23	=23	=23	=23	=23	=23	=23	=23	=23
4.C#	4c#	.	2G#	.	2e	woo	4e	ー	.
.	8r	.	.	.	.	.	8r	.	.
8C#	8F#	.	.	.	.	.	8A	い	.
4F#	8F#L	.	2A	.	2c#	.	8AL	ち	.
.	8G#	.	.	.	.	.	8B	ば	.
4F#	8A	.	.	.	.	.	8c#	ん	.
.	[8BJ	.	.	.	.	.	[8dJ	の	.
=24	=24	=24	=24	=24	=24	=24	=24	=24	=24
4BB	4.B]	.	2A	.	2f#	.	4.d]	ー	.
4BB	.	.	.	.	.	.	.	.	.
.	4r	.	.	.	.	.	4r	.	.
4BB	.	.	4r	.	4r	.	.	.	.
.	8r	.	.	.	.	.	8r	.	.
4BB	8F#L	.	8F#L	.	8F#L	.	8F#L	え	.
.	8BJ	.	8BJ	.	8BJ	.	8BJ	が	.
=25	=25	=25	=25	=25	=25	=25	=25	=25	=25
1E	[8AL	.	[8AL	.	[8AL	.	[8AL	お	.
.	8AJ]	.	8AJ]	.	8AJ]	.	8AJ]	ー	.
.	4G#	.	4G#	.	4G#	.	4G#	み	.
.	4F#	.	4F#	.	4F#	.	4F#	せ	.
.	4G#	.	4G#	.	4G#	.	4G#	て	.
=26	=26	=26	=26	=26	=26	=26	=26	=26	=26
1D	[8A	.	[8A	.	[8A	.	[8A	よー	.
.	4.A]	.	4.A]	.	4.A]	.	4.A]	.	.
.	4r	.	4r	.	4r	.	4r	.	.
.	8r	.	8r	.	8r	.	8r	.	.
.	8r	.	8r	.	8r	.	8r	.	.
==	==	==	==	==	==	==	==	==	==
*-	*-	*-	*-	*-	*-	*-	*-	*-	*-
